images/star.svg

<?xml version="1.0"?>
<svg xmlns="http://www.w3.org/2000/svg" xmlns:xlink="http://www.w3.org/1999/xlink" xmlns:svgjs="http://svgjs.com/svgjs" version="1.1" width="512" height="512" x="0" y="0" viewBox="0 0 512 512" style="enable-background:new 0 0 512 512" xml:space="preserve" class=""><g><g xmlns="http://www.w3.org/2000/svg"><path d="m437.019 74.981-181.019 113.737-181.019-113.737 113.737 181.019-113.737 181.019 181.019-113.737 181.019 113.737-113.737-181.019z" fill="#ce9627" data-original="#000000" style="" class=""/><path d="m153.287 256-19.227-30.601-134.06 30.601 134.06 30.601z" fill="#ce9627" data-original="#000000" style="" class=""/><path d="m358.713 256 19.227 30.601 134.06-30.601-134.06-30.601z" fill="#ce9627" data-original="#000000" style="" class=""/><path d="m225.399 377.94 30.601 134.06 30.601-134.06-30.601-19.227z" fill="#ce9627" data-original="#000000" style="" class=""/><path d="m286.601 134.06-30.601-134.06-30.601 134.06 30.601 19.227z" fill="#ce9627" data-original="#000000" style="" class=""/></g></g></svg>

<svg xmlns="http://www.w3.org/2000/svg" width="512" height="512"><g xmlns="http://www.w3.org/2000/svg"><path d="M437.019 74.981L256 188.718 74.981 74.981 188.718 256 74.981 437.019 256 323.282l181.019 113.737L323.282 256z" fill="#ce9627" data-original="#000000"/><path d="M153.287 256l-19.227-30.601L0 256l134.06 30.601zM358.713 256l19.227 30.601L512 256l-134.06-30.601zM225.399 377.94L256 512l30.601-134.06L256 358.713zM286.601 134.06L256 0l-30.601 134.06L256 153.287z" fill="#ce9627" data-original="#000000"/></g></svg>
